Logo/Atom.svg

<?xml version="1.0" encoding="UTF-8" standalone="no" ?>
<svg width="256px" height="256px" viewBox="0 0 256 256" version="1.1" xmlns="http://www.w3.org/2000/svg" xmlns:xlink="http://www.w3.org/1999/xlink" preserveAspectRatio="xMidYMid">
    <defs>
        <linearGradient x1="50%" y1="3.96111359%" x2="50%" y2="100%" id="linearGradient-1">
            <stop stop-color="#FDFDFD" offset="0%"></stop>
            <stop stop-color="#CBCBCB" offset="100%"></stop>
        </linearGradient>
        <linearGradient x1="50%" y1="3.96111359%" x2="50%" y2="100%" id="linearGradient-2">
            <stop stop-color="#B2E198" offset="0%"></stop>
            <stop stop-color="#04A171" offset="100%"></stop>
        </linearGradient>
    </defs>
    <g>
        <circle fill="url(#linearGradient-1)" cx="128" cy="128" r="127.857778"></circle>
        <circle fill="url(#linearGradient-2)" cx="127.857778" cy="128.142222" r="116.906667"></circle>
        <g transform="translate(45.511111, 52.622222)">
            <path d="M54.9418451,57.4745163 C53.5662718,59.5947652 52.2370629,61.7241163 50.9542185,63.8565963 C49.551054,59.9941252 48.3191251,56.1902496 47.2698096,52.4793874 C51.000014,51.9449163 54.9648851,51.5230852 59.1439429,51.2312452 C57.7248496,53.2655918 56.3225385,55.3468718 54.9418451,57.4745163 L54.9418451,57.4745163 L54.9418451,57.4745163 Z M158.079694,64.9494318 C153.94757,60.9828541 148.040227,57.3482229 140.521792,54.1462318 C125.596138,47.7897518 105.603676,43.6715652 84.2268229,42.5502852 C81.6489029,42.4151741 79.1321385,42.3227296 76.6981474,42.2735207 C93.0190007,22.7927741 108.781205,12.4276185 117.960796,12.0788896 C119.90469,12.0046496 121.536547,12.3892185 122.815125,13.2200807 C127.111374,16.0121874 128.303196,24.6723829 126.003747,36.3860896 C125.550058,38.6983385 127.056192,40.9408985 129.368441,41.3948718 C131.680974,41.8471385 133.922965,40.3424274 134.377223,38.0298941 C138.330147,17.8929341 132.800547,9.53282739 127.465792,6.06516517 C124.681365,4.25524517 121.372423,3.40987628 117.636814,3.55181406 C103.516707,4.08827628 83.732174,19.1442052 65.6796229,42.3551563 C58.5323874,42.6017696 51.6420051,43.2187296 45.196494,44.1812896 C44.4890807,40.8962407 43.9423785,37.7121696 43.5720318,34.6600807 C41.952974,21.3162229 43.9386807,11.8442229 48.8834629,9.3223385 C49.6779162,8.91728961 50.5460407,8.68404517 51.537614,8.60980517 C55.9558896,8.27728961 62.1900585,11.2463207 69.0801562,16.9684896 C70.8923518,18.4737696 73.5826274,18.2248807 75.0884762,16.4118318 C76.5937562,14.5990674 76.3445829,11.9090763 74.5318185,10.4037963 C65.6821829,3.05432072 57.7313918,-0.413057055 50.8990362,0.100365167 C48.7864674,0.258800722 46.804174,0.804080722 45.0067696,1.72056072 C40.4135607,4.06296072 37.2747162,8.54836517 35.6772762,15.0521874 C34.3090985,20.6216096 34.1151074,27.5646141 35.1009918,35.6877785 C35.4906807,38.9002941 36.0607074,42.2436541 36.7954274,45.6860007 C31.7559251,46.7481163 27.0853474,48.0420541 22.898894,49.5544452 C4.58294736,56.1709074 0.354396245,64.8919741 0.0324051334,71.0430852 C-0.275363755,76.9188541 2.7323518,85.6635296 18.808014,93.9536629 C20.9023785,95.0339829 23.4757474,94.2110852 24.5557829,92.1170052 C25.6358185,90.0226407 24.8134896,87.4492718 22.7191251,86.3695207 C13.4715518,81.6002407 8.30860069,76.1770229 8.55407624,71.4893785 C8.89996069,64.8845785 19.9705385,57.8940718 38.8280674,53.9550852 C40.5748407,60.2637785 42.8185385,66.8159563 45.508814,73.4597252 C38.7310718,86.1826407 33.7857207,98.7218052 31.221454,109.875725 C29.3887785,117.845859 28.8531696,124.765539 29.6294185,130.442765 C30.5359429,137.07345 33.1881029,141.860365 37.511374,144.670676 C39.7158185,146.103423 42.6868407,147.224134 46.5894185,147.224134 C52.2481562,147.22385 59.8644407,144.866659 69.9329207,137.68529 C71.851214,136.317112 72.2975074,133.652721 70.9290451,131.734143 C69.5611518,129.81585 66.8964762,129.369841 64.9778985,130.738019 C55.0530629,137.816987 46.5237118,140.350819 42.1617562,137.516045 C37.5099518,134.492401 36.5289029,124.874196 39.5377562,111.787476 C41.5328496,103.10993 45.0929562,93.4914407 49.9208318,83.5782674 C50.9690096,85.8222496 52.0629829,88.0676541 53.2038896,90.3087918 C62.9207962,109.396152 74.8159785,126.002872 86.6983607,137.070321 C92.6822185,142.643441 98.4055251,146.567636 103.709276,148.733965 C106.926912,150.047814 109.948565,150.704881 112.753756,150.704881 C115.350165,150.704596 117.76197,150.141681 119.970112,149.015565 C124.400334,146.756223 127.481152,142.494676 129.127232,136.349539 C130.536654,131.087032 130.853241,124.522339 130.068743,116.837503 C128.525916,101.72753 122.816263,83.2989429 113.991658,64.9463029 C112.970787,62.8223563 110.421027,61.9292007 108.297365,62.9497874 C106.173703,63.9709429 105.279978,66.5204185 106.301134,68.6440807 C114.708458,86.1288807 120.134805,103.552241 121.579498,117.704205 C122.850112,130.150356 120.799267,139.013645 116.093418,141.413503 C111.151765,143.933396 102.337685,139.975352 92.5143962,130.825912 C81.3439785,120.421787 70.0839607,104.657592 60.8082274,86.4375029 C58.687694,82.2718141 56.7341296,78.0975918 54.9566362,73.9546585 C57.1627874,70.0099829 59.5484229,66.0519385 62.100174,62.1192096 C64.7019874,58.1093963 67.3359429,54.3305518 69.9770096,50.7858052 C70.6775962,50.7761341 71.3818807,50.7690229 72.0921385,50.7667474 C75.7563518,50.7550852 79.6836762,50.8572007 83.7799607,51.0719563 C104.184298,52.1423207 123.14821,56.0224274 137.178432,61.9971829 C149.519054,67.2528629 156.713223,73.7012185 156.42309,79.2467474 C156.176476,83.9551563 150.455445,88.8220007 140.727161,92.5991385 C138.530396,93.4521874 137.440974,95.9242941 138.293738,98.1207741 C138.949667,99.8100896 140.563036,100.84433 142.272547,100.84433 C142.785685,100.84433 143.30821,100.751032 143.815374,100.553912 C160.719907,93.9903563 164.636138,85.5870141 164.944761,79.6927563 C165.214414,74.5414674 162.904725,69.5813252 158.079694,64.9494318 L158.079694,64.9494318 L158.079694,64.9494318 Z" fill="#F2F8F6"></path>
            <path d="M73.6829762,76.5104793 C73.6829762,81.6637593 77.856914,85.8413948 83.0056428,85.8413948 C88.1546562,85.8413948 92.328594,81.6637593 92.328594,76.5104793 C92.328594,71.3571993 88.1546562,67.1795637 83.0056428,67.1795637 C77.856914,67.1795637 73.6829762,71.3571993 73.6829762,76.5104793" fill="#F1F8F3"></path>
        </g>
    </g>
</svg>

<svg version="1.1" id="master" xmlns="http://www.w3.org/2000/svg" xmlns:xlink="http://www.w3.org/1999/xlink" x="0px" y="0px"
	 width="256px" height="256px" viewBox="0 0 256 256" enable-background="new 0 0 256 256" xml:space="preserve">
<g>
	
		<linearGradient id="SVGID_1_" gradientUnits="userSpaceOnUse" x1="117.6616" y1="139.3164" x2="117.6616" y2="138.356" gradientTransform="matrix(255.7156 0 0 -255.7156 -29959.8633 35635.7852)">
		<stop  offset="0" style="stop-color:#FDFDFD"/>
		<stop  offset="1" style="stop-color:#CBCBCB"/>
	</linearGradient>
	<circle fill="url(#SVGID_1_)" cx="128" cy="128" r="127.858"/>
	
		<linearGradient id="SVGID_2_" gradientUnits="userSpaceOnUse" x1="117.7236" y1="139.209" x2="117.7236" y2="138.2486" gradientTransform="matrix(233.8133 0 0 -233.8133 -27397.5039 32569.5234)">
		<stop  offset="0" style="stop-color:#B2E198"/>
		<stop  offset="1" style="stop-color:#04A171"/>
	</linearGradient>
	<circle fill="url(#SVGID_2_)" cx="127.858" cy="128.142" r="116.907"/>
	<g transform="translate(45.511111, 52.622222)">
		<path fill="#F2F8F6" d="M54.942,57.474c-1.376,2.12-2.705,4.25-3.988,6.382c-1.403-3.863-2.635-7.667-3.685-11.377
			c3.73-0.534,7.695-0.956,11.875-1.248C57.725,53.265,56.322,55.347,54.942,57.474L54.942,57.474L54.942,57.474z M158.08,64.95
			c-4.132-3.967-10.04-7.601-17.558-10.803c-14.926-6.356-34.918-10.475-56.295-11.596c-2.578-0.135-5.095-0.228-7.529-0.277
			c16.321-19.48,32.083-29.846,41.262-30.194c1.944-0.074,3.576,0.31,4.854,1.141c4.297,2.792,5.488,11.452,3.188,23.166
			c-0.454,2.312,1.053,4.555,3.364,5.009c2.313,0.452,4.555-1.052,5.01-3.365c3.953-20.137-1.577-28.497-6.912-31.965
			c-2.784-1.81-6.094-2.655-9.828-2.514C103.516,4.088,83.732,19.144,65.68,42.355c-7.147,0.247-14.038,0.863-20.483,1.826
			c-0.708-3.285-1.254-6.469-1.625-9.521c-1.619-13.344,0.367-22.816,5.312-25.338c0.794-0.405,1.663-0.638,2.654-0.712
			c4.418-0.333,10.652,2.637,17.542,8.359c1.812,1.505,4.502,1.256,6.008-0.557c1.505-1.813,1.256-4.503-0.557-6.008
			C65.682,3.055,57.732-0.413,50.899,0.1c-2.113,0.158-4.095,0.704-5.892,1.62c-4.593,2.342-7.732,6.828-9.33,13.332
			c-1.368,5.569-1.563,12.513-0.576,20.636c0.39,3.212,0.959,6.556,1.694,9.998c-5.04,1.062-9.71,2.356-13.896,3.869
			C4.583,56.171,0.355,64.892,0.032,71.043c-0.308,5.875,2.7,14.62,18.776,22.911c2.094,1.08,4.667,0.258,5.748-1.837
			s0.258-4.668-1.836-5.747C13.471,81.6,8.309,76.177,8.554,71.49C8.9,64.885,19.97,57.894,38.828,53.955
			c1.747,6.309,3.99,12.861,6.681,19.505c-6.778,12.723-11.723,25.262-14.288,36.416c-1.833,7.971-2.368,14.89-1.592,20.566
			c0.906,6.631,3.559,11.418,7.882,14.229c2.205,1.433,5.175,2.553,9.078,2.553c5.659,0,13.275-2.357,23.343-9.538
			c1.918-1.368,2.365-4.032,0.996-5.951c-1.368-1.919-4.032-2.364-5.951-0.996c-9.925,7.079-18.455,9.612-22.816,6.778
			c-4.652-3.023-5.633-12.643-2.624-25.729c1.995-8.678,5.555-18.297,10.383-28.209c1.048,2.243,2.142,4.488,3.283,6.73
			c9.717,19.087,21.612,35.693,33.494,46.761c5.984,5.573,11.707,9.497,17.012,11.663c3.217,1.314,6.238,1.972,9.044,1.972
			c2.597-0.001,5.009-0.563,7.217-1.689c4.431-2.259,7.511-6.521,9.157-12.666c1.409-5.263,1.726-11.827,0.941-19.512
			c-1.543-15.11-7.253-33.538-16.077-51.892c-1.021-2.124-3.571-3.017-5.694-1.996c-2.124,1.021-3.018,3.57-1.996,5.694
			c8.407,17.485,13.834,34.908,15.278,49.06c1.271,12.446-0.78,21.31-5.486,23.709c-4.941,2.521-13.756-1.438-23.579-10.587
			c-11.17-10.404-22.43-26.169-31.706-44.389c-2.121-4.165-4.074-8.34-5.852-12.483c2.206-3.944,4.592-7.902,7.144-11.835
			c2.602-4.01,5.236-7.789,7.877-11.333c0.7-0.01,1.405-0.017,2.115-0.019c3.665-0.012,7.592,0.09,11.688,0.305
			c20.404,1.07,39.368,4.95,53.398,10.925c12.341,5.255,19.535,11.704,19.244,17.25c-0.246,4.708-5.967,9.575-15.695,13.352
			c-2.197,0.854-3.286,3.326-2.434,5.522c0.656,1.688,2.27,2.724,3.979,2.724c0.514,0,1.036-0.094,1.543-0.291
			c16.904-6.563,20.821-14.967,21.13-20.861C165.214,74.541,162.905,69.581,158.08,64.95L158.08,64.95L158.08,64.95z"/>
		<path fill="#F1F8F3" d="M73.683,76.511c0,5.153,4.174,9.331,9.322,9.331c5.149,0,9.323-4.178,9.323-9.331
			s-4.174-9.331-9.323-9.331C77.857,67.18,73.683,71.357,73.683,76.511"/>
	</g>
</g>
</svg>
